packages/icons/src/SVG/hidden.svg

<svg width="12" height="12" viewBox="0 0 12 12" fill="none" xmlns="http://www.w3.org/2000/svg">
<path fill-rule="evenodd" clip-rule="evenodd" d="M10.5763 0.5L11.6369 1.56066L9.76763 3.42996C10.7981 4.24182 11.5583 5.22297 12 5.87498C11.25 7.24998 9 9.99998 6 9.99998C5.18169 9.99998 4.41919 9.79538 3.72771 9.46988L1.56066 11.6369L0.5 10.5763L2.41553 8.66074C1.25051 7.76515 0.405746 6.61885 0 5.87498C0.875 4.58332 3 1.99998 6 1.99998C6.90817 1.99998 7.73616 2.23673 8.47356 2.60271L10.5763 0.5ZM7.42733 3.64894C7.01125 3.39579 6.52265 3.24998 6 3.24998C4.48122 3.24998 3.25 4.4812 3.25 5.99998C3.25 6.52264 3.3958 7.01123 3.64895 7.42732L4.38977 6.6865C4.29978 6.47571 4.24998 6.24366 4.24998 5.99998C4.24998 5.03349 5.03348 4.24998 5.99998 4.24998C6.24366 4.24998 6.4757 4.29979 6.68649 4.38978L7.42733 3.64894ZM4.74832 8.44927C5.12376 8.64152 5.54922 8.74998 6 8.74998C7.51878 8.74998 8.75 7.51877 8.75 5.99998C8.75 5.5492 8.64154 5.12375 8.44929 4.74831L7.68206 5.51554C7.72628 5.66938 7.74998 5.83191 7.74998 5.99998C7.74998 6.96648 6.96648 7.74998 5.99998 7.74998C5.83191 7.74998 5.66937 7.72629 5.51553 7.68206L4.74832 8.44927Z" fill="#4C505B"/>
</svg>

<!-- Generated by IcoMoon.io -->
<svg version="1.1" xmlns="http://www.w3.org/2000/svg" width="12" height="12" viewBox="0 0 12 12">
<title>hidden</title>
<path d="M10.576 0.5l1.061 1.061-1.869 1.869c1.030 0.812 1.791 1.793 2.232 2.445-0.75 1.375-3 4.125-6 4.125-0.818 0-1.581-0.205-2.272-0.53l-2.167 2.167-1.061-1.061 1.916-1.916c-1.165-0.896-2.010-2.042-2.416-2.786 0.875-1.292 3-3.875 6-3.875 0.908 0 1.736 0.237 2.474 0.603l2.103-2.103zM7.427 3.649c-0.416-0.253-0.905-0.399-1.427-0.399-1.519 0-2.75 1.231-2.75 2.75 0 0.523 0.146 1.011 0.399 1.427l0.741-0.741c-0.090-0.211-0.14-0.443-0.14-0.687 0-0.966 0.784-1.75 1.75-1.75 0.244 0 0.476 0.050 0.687 0.14l0.741-0.741zM4.748 8.449c0.375 0.192 0.801 0.301 1.252 0.301 1.519 0 2.75-1.231 2.75-2.75 0-0.451-0.108-0.876-0.301-1.252l-0.767 0.767c0.044 0.154 0.068 0.316 0.068 0.484 0 0.967-0.784 1.75-1.75 1.75-0.168 0-0.331-0.024-0.484-0.068l-0.767 0.767z"></path>
</svg>
